icons/line/phone-missed-call.svg

<svg width="24" height="24" viewBox="0 0 24 24" fill="none" xmlns="http://www.w3.org/2000/svg">
<path fill-rule="evenodd" clip-rule="evenodd" d="M15.7071 3.29289C15.3166 2.90237 14.6834 2.90237 14.2929 3.29289C13.9024 3.68342 13.9024 4.31658 14.2929 4.70711L16.0858 6.5L14.2929 8.29289C13.9024 8.68342 13.9024 9.31658 14.2929 9.70711C14.6834 10.0976 15.3166 10.0976 15.7071 9.70711L17.5 7.91421L19.2929 9.70711C19.6834 10.0976 20.3166 10.0976 20.7071 9.70711C21.0976 9.31658 21.0976 8.68342 20.7071 8.29289L18.9142 6.5L20.7071 4.70711C21.0976 4.31658 21.0976 3.68342 20.7071 3.29289C20.3166 2.90237 19.6834 2.90237 19.2929 3.29289L17.5 5.08579L15.7071 3.29289ZM3 4C2.44772 4 2 4.44772 2 5C2 7.02274 2.42416 9.73381 3.58294 12.3988C4.98312 15.6188 7.47777 18.8187 11.605 20.5935C13.6724 21.4825 16.1206 22 19 22C19.5523 22 20 21.5523 20 21V17C20 16.5411 19.6877 16.1411 19.2425 16.0299L15.2425 15.0299C14.8667 14.9359 14.4704 15.0675 14.2254 15.3676L11.7161 18.4412C8.82223 16.9977 6.9199 14.7056 5.72478 12.2673L8.65079 9.75926C8.93838 9.51275 9.06201 9.12493 8.97014 8.75746L7.97014 4.75746C7.85885 4.3123 7.45887 4 7 4H3ZM18 19.9766C16.3709 19.8994 14.9301 19.6338 13.6566 19.2268L15.3732 17.1241L18 17.7808V19.9766ZM6.87996 8.64295L4.92218 10.3211C4.39848 8.78383 4.12888 7.28024 4.03703 6H6.21922L6.87996 8.64295Z" fill="currentColor"/>
</svg>

<svg width="24" height="24" fill="none" xmlns="http://www.w3.org/2000/svg"><path fill-rule="evenodd" clip-rule="evenodd" d="M15.707 3.293a1 1 0 10-1.414 1.414L16.086 6.5l-1.793 1.793a1 1 0 001.414 1.414L17.5 7.914l1.793 1.793a1 1 0 001.414-1.414L18.914 6.5l1.793-1.793a1 1 0 00-1.414-1.414L17.5 5.086l-1.793-1.793zM3 4a1 1 0 00-1 1c0 2.023.424 4.734 1.583 7.399 1.4 3.22 3.895 6.42 8.022 8.194C13.672 21.483 16.121 22 19 22a1 1 0 001-1v-4a1 1 0 00-.758-.97l-4-1a1 1 0 00-1.017.338l-2.509 3.073c-2.894-1.443-4.796-3.735-5.991-6.174L8.65 9.76a1 1 0 00.32-1.002l-1-4A1 1 0 007 4H3zm15 15.977c-1.63-.078-3.07-.343-4.343-.75l1.716-2.103 2.627.657v2.196zM6.88 8.643L4.922 10.32A17.47 17.47 0 014.037 6h2.182l.661 2.643z" fill="currentColor"/></svg>
